X: 7919
T: Concert, The
R: hornpipe
M: 4/4
K: Dmajor
|:A2|F>Af>A F>Af>A|G>Ae>A (F>A) f2|g2 f>g e>fd>e|c>dB>c A2 G2|
F>Af>A F>Af>A|G>Ae>A (F>A) f2|g2 f>g e>fd>e|c>B (3ABc d2:|
|:F2|f>Fe>F d>Fc>F|B>FB>d f>dB>F|^A>FA>c f>cA>F|B>FB>d f>dB>F|
f>Fe>F d>Fc>F|B>FB>d f>dB>F|^A>FA>c f>cA>F|B>Fd>c B2:|

